logos/nextjs.svg

<?xml version="1.0" encoding="UTF-8"?>
<svg width="512px" height="104px" viewBox="0 0 512 104" version="1.1" xmlns="http://www.w3.org/2000/svg" preserveAspectRatio="xMidYMid">
    <title>Next.js</title>
    <g>
        <path d="M429.54331,0.0429770721 L429.54331,16.5035533 L394.165929,16.5035533 L394.165929,103.100426 L376.475939,103.100426 L376.475939,16.5035533 L340.361746,16.5035533 L340.361746,0.0429770721 L429.54331,0.0429770721 Z M433.519756,93.2825015 C434.76597,93.2825015 435.856244,93.7313462 436.778883,94.6289056 C437.714518,95.526465 438.181036,96.6012751 438.19403,97.8532061 C438.181036,98.703464 437.96532,99.4828995 437.533888,100.179687 C437.090761,100.88843 436.528081,101.443574 435.819858,101.845117 C435.124629,102.258485 434.357929,102.470952 433.519756,102.470952 C432.224162,102.470952 431.122193,102.022238 430.199553,101.124678 C429.276914,100.227119 428.820792,99.1404832 428.832487,97.8532061 C428.820792,96.6012751 429.276914,95.526465 430.199553,94.6289056 C431.122193,93.7313462 432.224162,93.2825015 433.519756,93.2825015 Z M82.9163208,103.100426 L17.6888203,22.0284751 L17.6888203,103.057413 L0,103.057413 L0,0 L22.1109929,0 L104.516873,102.328528 L104.518173,16.5035533 L104.510765,0.0429770721 L193.691939,0.0429770721 L193.691939,16.5035533 L122.206993,16.5035533 L122.206993,42.9835695 L179.695107,42.9835695 L179.695107,59.4441096 L122.206993,59.4441096 L122.206993,86.6398863 L193.691939,86.6398863 L193.691939,103.100426 L82.9163208,103.100426 Z M250.384893,59.2866112 L261.977665,73.7004508 L238.222944,103.222059 L215.007513,103.222059 L250.384893,59.2866112 Z M238.222944,0.085959602 L268.152853,37.2560569 L297.989198,0.200360934 L321.139655,0.164585909 L279.743025,51.6501442 L321.205929,103.14344 L297.989198,103.14344 L215.073787,0.085959602 L238.222944,0.085959602 Z M463.710863,59.0558213 L471.549401,59.0558213 L471.549401,89.2551147 C471.537706,92.0305706 470.93734,94.4044832 469.763898,96.4005036 C468.577462,98.3963939 466.934904,99.9197888 464.825827,100.994599 C462.728447,102.057454 460.271107,102.600902 457.478497,102.600902 C454.924995,102.600902 452.636589,102.140231 450.598985,101.242672 C448.561381,100.345113 446.943513,98.9987086 445.757076,97.2271107 C444.557645,95.4555127 443.970274,93.2470254 443.970274,90.6015188 L451.821807,90.6015188 C451.833503,91.7589766 452.097299,92.7627046 452.600203,93.601267 C453.103107,94.4398294 453.798335,95.0774904 454.685888,95.526335 C455.583838,95.9751797 456.615635,96.199602 457.777381,96.199602 C459.036589,96.199602 460.115168,95.9397036 460.989726,95.4082112 C461.864284,94.8885442 462.536122,94.1091086 463.003939,93.0697746 C463.458761,92.0423959 463.699168,90.7668142 463.710863,89.2551147 L463.710863,59.0558213 Z M503.801503,70.8662579 C503.610477,69.0356629 502.771005,67.6066112 501.309076,66.5909279 C499.834152,65.5634193 497.929096,65.0555777 495.59131,65.0555777 C493.950051,65.0555777 492.536203,65.3036508 491.361462,65.7878416 C490.186721,66.2838579 489.275777,66.9451695 488.65202,67.783732 C488.029563,68.6222944 487.717685,69.5789807 487.692995,70.6537909 C487.692995,71.5513503 487.908711,72.3307858 488.328447,72.980402 C488.748183,73.6417137 489.310863,74.1968569 490.042477,74.6457015 C490.761096,75.1062416 491.564183,75.484134 492.440041,75.7912041 C493.326294,76.0982741 494.213848,76.3581726 495.100102,76.5707695 L499.187005,77.5746274 C500.829563,77.9525198 502.424041,78.4604914 503.945746,79.1099777 C505.467452,79.7477685 506.846213,80.5626802 508.056041,81.5428873 C509.267168,82.5232244 510.226193,83.704203 510.933117,85.0860832 C511.640041,86.4678335 512,88.0858315 512,89.9519025 C512,92.4674599 511.352853,94.6760772 510.045563,96.5893198 C508.739574,98.4907371 506.857909,99.9789157 504.388873,101.053726 C501.931533,102.116711 498.959594,102.659898 495.460061,102.659898 C492.080081,102.659898 489.131533,102.140361 486.650802,101.101027 C484.158376,100.073519 482.215635,98.5616893 480.813482,96.5774944 C479.41133,94.5934294 478.656325,92.1722152 478.548467,89.3259371 L486.315533,89.3259371 C486.423391,90.8139858 486.902904,92.0542213 487.717685,93.0580792 C488.544162,94.0501117 489.622741,94.7823756 490.941726,95.2783919 C492.272406,95.7625827 493.757726,96.0106558 495.400284,96.0106558 C497.114315,96.0106558 498.624325,95.7507574 499.930315,95.2429157 C501.224609,94.7350741 502.243411,94.0265909 502.975025,93.1053807 C503.718335,92.195866 504.08999,91.1211858 504.101685,89.8929056 C504.08999,88.7709239 503.753421,87.8377584 503.106274,87.1054944 C502.447431,86.3733604 501.536487,85.7592203 500.373442,85.2632041 C499.2,84.7671878 497.832934,84.3183431 496.274843,83.9286254 L491.313381,82.6766944 C487.729381,81.7673096 484.88869,80.3855594 482.814701,78.5313137 C480.730315,76.677068 479.698518,74.2205076 479.698518,71.1379817 C479.698518,68.610599 480.393746,66.3902863 481.797198,64.4887391 C483.186355,62.5873218 485.092711,61.1109685 487.50197,60.0598091 C489.922924,58.9969543 492.655756,58.4771574 495.699168,58.4771574 C498.791959,58.4771574 501.500102,58.9969543 503.837888,60.0598091 C506.174376,61.1109685 508.009259,62.5754964 509.33864,64.4414376 C510.66932,66.3075086 511.364548,68.4451736 511.400934,70.8662579 L503.801503,70.8662579 Z" fill="#000000"></path>
    </g>
</svg>

<svg preserveAspectRatio="xMidYMid" viewBox="0 0 512 104" xmlns="http://www.w3.org/2000/svg">
  <path d="M429.543.043v16.46h-35.377V103.1h-17.69V16.504h-36.114V.043h89.181Zm3.977 93.24c1.246 0 2.336.448 3.259 1.346.936.897 1.402 1.972 1.415 3.224a4.476 4.476 0 0 1-.66 2.327 4.776 4.776 0 0 1-1.714 1.665 4.422 4.422 0 0 1-2.3.626c-1.296 0-2.398-.449-3.32-1.346-.923-.898-1.38-1.985-1.368-3.272-.011-1.252.445-2.327 1.368-3.224.922-.898 2.024-1.346 3.32-1.346ZM82.916 103.1 17.69 22.028v81.03H0V0h22.111l82.406 102.329.001-85.825-.007-16.461h89.18v16.46h-71.484v26.48h57.488v16.461h-57.488V86.64h71.485v16.46H82.916Zm167.469-43.813L261.978 73.7l-23.755 29.522h-23.215l35.377-43.935ZM238.223.086l29.93 37.17L297.989.2l23.15-.035-41.396 51.485 41.463 51.493h-23.217L215.074.086h23.149Zm225.488 58.97h7.838v30.2c-.011 2.775-.612 5.148-1.785 7.145-1.187 1.995-2.83 3.519-4.938 4.594-2.098 1.062-4.555 1.606-7.348 1.606-2.553 0-4.841-.46-6.879-1.358-2.038-.898-3.655-2.244-4.842-4.016-1.2-1.771-1.787-3.98-1.787-6.625h7.852c.012 1.157.275 2.16.778 3a5.01 5.01 0 0 0 2.086 1.924c.898.45 1.93.674 3.091.674 1.26 0 2.338-.26 3.213-.792.874-.52 1.546-1.299 2.014-2.338.455-1.028.695-2.303.707-3.815v-30.2Zm40.09 11.81c-.19-1.83-1.03-3.26-2.492-4.275-1.475-1.028-3.38-1.535-5.718-1.535-1.64 0-3.055.248-4.23.732-1.174.496-2.085 1.157-2.709 1.996-.622.838-.934 1.795-.959 2.87 0 .897.216 1.677.635 2.326a5.22 5.22 0 0 0 1.714 1.666 11.5 11.5 0 0 0 2.398 1.145c.886.307 1.774.567 2.66.78l4.087 1.004c1.643.378 3.237.885 4.759 1.535 1.521.638 2.9 1.453 4.11 2.433 1.211.98 2.17 2.161 2.877 3.543.707 1.382 1.067 3 1.067 4.866 0 2.515-.647 4.724-1.954 6.637-1.306 1.902-3.188 3.39-5.657 4.465-2.457 1.063-5.43 1.606-8.929 1.606-3.38 0-6.328-.52-8.81-1.559-2.492-1.027-4.434-2.54-5.837-4.524-1.402-1.984-2.157-4.405-2.265-7.251h7.768c.107 1.488.587 2.728 1.402 3.732.826.992 1.905 1.724 3.224 2.22 1.33.485 2.816.733 4.458.733 1.714 0 3.224-.26 4.53-.768 1.295-.508 2.313-1.216 3.045-2.138.743-.91 1.115-1.984 1.127-3.212-.012-1.122-.349-2.055-.996-2.788-.659-.732-1.57-1.346-2.733-1.842-1.173-.496-2.54-.945-4.098-1.334l-4.962-1.252c-3.584-.91-6.424-2.291-8.498-4.146-2.085-1.854-3.116-4.31-3.116-7.393 0-2.527.695-4.748 2.098-6.65 1.39-1.9 3.296-3.377 5.705-4.428 2.42-1.063 5.154-1.583 8.197-1.583 3.093 0 5.801.52 8.139 1.583 2.336 1.051 4.171 2.515 5.5 4.381 1.331 1.867 2.027 4.004 2.063 6.425h-7.6Z"/>
</svg>
